svgs/light/cart-flatbed-suitcase.svg

<svg xmlns="http://www.w3.org/2000/svg" viewBox="0 0 640 512"><!--! Font Awesome Pro 6.6.0 by @fontawesome - https://fontawesome.com License - https://fontawesome.com/license (Commercial License) Copyright 2024 Fonticons, Inc. --><path d="M0 16C0 7.2 7.2 0 16 0L80 0c26.5 0 48 21.5 48 48l0 320c0 8.8 7.2 16 16 16l80 0 288 0 112 0c8.8 0 16 7.2 16 16s-7.2 16-16 16l-56.6 0c5.4 9.4 8.6 20.3 8.6 32c0 35.3-28.7 64-64 64s-64-28.7-64-64c0-11.7 3.1-22.6 8.6-32l-177.1 0c5.4 9.4 8.6 20.3 8.6 32c0 35.3-28.7 64-64 64s-64-28.7-64-64c0-11.7 3.1-22.6 8.6-32L144 416c-26.5 0-48-21.5-48-48L96 48c0-8.8-7.2-16-16-16L16 32C7.2 32 0 24.8 0 16zM512 416a32 32 0 1 0 0 64 32 32 0 1 0 0-64zM192 448a32 32 0 1 0 64 0 32 32 0 1 0 -64 0zM336 32c-8.8 0-16 7.2-16 16l0 32 128 0 0-32c0-8.8-7.2-16-16-16l-96 0zM480 80l32 0c35.3 0 64 28.7 64 64l0 112c0 35.3-28.7 64-64 64l-256 0c-35.3 0-64-28.7-64-64l0-112c0-35.3 28.7-64 64-64l32 0 0-32c0-26.5 21.5-48 48-48l96 0c26.5 0 48 21.5 48 48l0 32zM272 112l-16 0c-17.7 0-32 14.3-32 32l0 112c0 17.7 14.3 32 32 32l16 0 0-176zm32 176l160 0 0-176-160 0 0 176zm192 0l16 0c17.7 0 32-14.3 32-32l0-112c0-17.7-14.3-32-32-32l-16 0 0 176z"/></svg>

<svg xmlns="http://www.w3.org/2000/svg" viewBox="0 0 640 512"><!--! Font Awesome Pro 6.4.2 by @fontawesome - https://fontawesome.com License - https://fontawesome.com/license (Commercial License) Copyright 2023 Fonticons, Inc. --><path d="M0 16C0 7.2 7.2 0 16 0H80c26.5 0 48 21.5 48 48V368c0 8.8 7.2 16 16 16h80H512 624c8.8 0 16 7.2 16 16s-7.2 16-16 16H567.4c5.4 9.4 8.6 20.3 8.6 32c0 35.3-28.7 64-64 64s-64-28.7-64-64c0-11.7 3.1-22.6 8.6-32H279.4c5.4 9.4 8.6 20.3 8.6 32c0 35.3-28.7 64-64 64s-64-28.7-64-64c0-11.7 3.1-22.6 8.6-32H144c-26.5 0-48-21.5-48-48V48c0-8.8-7.2-16-16-16H16C7.2 32 0 24.8 0 16zM512 416a32 32 0 1 0 0 64 32 32 0 1 0 0-64zM192 448a32 32 0 1 0 64 0 32 32 0 1 0 -64 0zM336 32c-8.8 0-16 7.2-16 16V80H448V48c0-8.8-7.2-16-16-16H336zM480 80h32c35.3 0 64 28.7 64 64V256c0 35.3-28.7 64-64 64H256c-35.3 0-64-28.7-64-64V144c0-35.3 28.7-64 64-64h32V48c0-26.5 21.5-48 48-48h96c26.5 0 48 21.5 48 48V80zM272 112H256c-17.7 0-32 14.3-32 32V256c0 17.7 14.3 32 32 32h16V112zm32 176H464V112H304V288zm192 0h16c17.7 0 32-14.3 32-32V144c0-17.7-14.3-32-32-32H496V288z"/></svg>
